X: 20546
T: John McNeill's Highland Fling
R: strathspey
M: 4/4
K: Amixolydian
a|e>A A/A/A a>A c<a|c/d/e g>d B>G G>f|e>A A/A/A a>A c<a|c/d/e a>e c>AA:|
e|a/g/f e>A a>A c<a|g/f/e d>G g>G B<g|a/g/f e>A a>A e>d|c/d/e a>e c>A A>e|
(3agf (3edc (3agf (3edc|(3gfe (3dcB (3gfe d>f|e>A A/A/A a>A c<a|g/f/e a>e c>AA||

